X: 38011
T: Viscount Reidhaven
C: William Marshall
R: reel
B: RSCDS 38-1
Z: 1997 by John Chambers <jc:trillian.mit.edu>
M: C|
L: 1/8
%--------------------
K: F
|: "F"c2AB c2AB | cagf "C"ecc2 | "Bb"d2Bd "F"c2Ac | "C7"GdcB "F"AFF2 :|
|| "F"aff2 cfAf | "Bb"defg "F"aff2 | "Gm"bgg2 "G7"dg=Bg | "C"efga "C7"bgg2 |
| "F"aff2 cfAf | "Bb"defg "F"afcA | "Gm"BdBd "F"AcAc | "C7"GdcB "F"AFF2 |]
%%center Book38/38011-Viscount_Reidhaven-1.abc

%%sep 1 1 500
%%sep 1 1 500

